X: 092
T: The new Tyne Bridge
C: by T.W.
R: jig
M: 6/8
L: 1/8
Z: 2011 John Chambers <jc:trillian.mit.edu>
B: Abraham Mackintosh "A Collection of Strathspeys, Reels, Jigs &c.", Newcastle, after 1797, p.9
F: http://imslp.info/files/imglnks/usimg/a/a8/IMSLP80796-PMLP164326-Abraham_Mackintosh_coll.pdf
N: The bass line has an '8' under the single notes in bars 12-15.  It's a mystery.
K: Am
V: 1
e |\
~c2A ABA | ~a2A ABc | B2g g^fe | ded Bcd |\
c2A ABA | a2A agf | edc Bcd | c2A A2 :|
|: ^g |\
~a2A ABA | ~a2A ag^f | ~g2G GAG | B2G g2^g |\
(ag).e (gf).d | (fe).c (ed).B | (dc).A ea^g | a2A A2 :|
V: 2 clef=bass middle=d
z |\
[a3A3] [a3A3] | [c'3c3] [a3A3] | [g3G3] [g3G3] | [g3G3] [^g3^G3] |\
[a3A3] [a3A3] | [c3C3]  [d3D3] | [e3E3] [e3E3] | [A3A,3] [A2A,2] :|
|: z |\
[a3A3] [a3A3] | [c'3c3] [a3A3] | [b3B3] [g3G3] | [g3G3] B3 |\
A3 B3 | c3 d3 | e3 e3 | [a3A3] [a2A2] :|

%%sep 2 1 500

